X: 14
T: 14. O Herre Gott, dein g\"ottlich Wort
N: Derived from chor014.krn
C: Johann Sebastian Bach
%%abc-version 2.0
%%abcx-abcm2ps-target-version 5.9.1 (29 Sep 2008)
%%abc-creator hum2abc beta
%%abcx-conversion-date 2019/03/11 17:28:17
%%abc-edited-by Craig Stuart Sapp
%%humdrum-veritas 2822659303
%%humdrum-veritas-data 2445314038
%%
%%barnumbers 0
L: 1/4
M: C
%%staves [1 2 3 4]
V: 1 clef=treble
V: 2 clef=treble
V: 3 clef=treble-8
V: 4 clef=bass
K: G
[V:1] G [I:setbarnb 1]| 
[V:2] D | 
[V:3] B | 
[V:4] G, | 
[V:1] GFED | 
[V:2] EDCC | 
[V:3] BB/A/GF | 
[V:4] E,B,,C,D, | 
[V:1] GA!fermata!BA | 
[V:2] B,D!fermata!DD | 
[V:3] GF!fermata!GF | 
[V:4] E,D,!fermata!G,,D, | 
[V:1] B/c//d//cBA/B/ | 
[V:2] DED/E/F | 
[V:3] FG/A/ B/c/d | 
[V:4] B,,E,,/F,,/G,,F,, | 
[V:1] cBA2 | 
[V:2] G2-GF | 
[V:3] c/d/eA/B/c | 
[V:4] E,,/E,/D,/C,/D,2 | 
[V:1] !fermata!G3 :|]  
[V:2] !fermata!D3 :|]  
[V:3] !fermata!B3 :|]  
[V:4] !fermata!G,,3 :|]  
[V:1] G [I:setbarnb 6]| 
[V:2] D | 
[V:3] B | 
[V:4] G, | 
[V:1] AB!fermata!GG | 
[V:2] DD!fermata!ED | 
[V:3] FG!fermata!GB | 
[V:4] D,G,,!fermata!C,B,, | 
[V:1] AB!fermata!GE | 
[V:2] EF!fermata!EB, | 
[V:3] A/G/F!fermata!BG/F/ | 
[V:4] ^C,^D,!fermata!E,E,/=D,/ | 
[V:1] A3/G/FG/F/ | 
[V:2] A,/B,/^CDD | 
[V:3] EAAG/A/ | 
[V:4] ^C,/B,,/A,,D,/C,/B,,/A,,/ | 
[V:1] E2!fermata!DD | 
[V:2] D^C!fermata!A,B, | 
[V:3] BA/G/!fermata!FF | 
[V:4] G,,A,,!fermata!D,B,, | 
[V:1] GFED | 
[V:2] B,/^C/D=C/B,/A, | 
[V:3] GA-A/G/F | 
[V:4] E,,F,,/G,,/ A,,/B,,/C, | 
[V:1] GA!fermata!BA | 
[V:2] DD!fermata!DD/E/ | 
[V:3] GF!fermata!GF | 
[V:4] B,,D,!fermata!G,,D,/C,/ | 
[V:1] d3/c/BA/B/ | 
[V:2] FG/A/ D/E/F | 
[V:3] B3/A/ B/c/d | 
[V:4] B,,E,/F,/G,F, | 
[V:1] cBA2 | 
[V:2] G2-GF | 
[V:3] c/d/eA/B/c | 
[V:4] E,D,/C,/D,2 | 
[V:1] !fermata!G3 |]  
[V:2] !fermata!D3 |]  
[V:3] !fermata!B3 |]  
[V:4] !fermata!G,,3 |]  



